libs/icons/src/svg/bell.svg

<svg width="16" height="16" viewBox="0 0 16 16" fill="none" xmlns="http://www.w3.org/2000/svg">
<g clip-path="url(#clip0_4_502)">
<path fill-rule="evenodd" clip-rule="evenodd" d="M7.99996 0C6.58547 0 5.22892 0.561903 4.22872 1.5621C3.22853 2.56229 2.66663 3.91885 2.66663 5.33333V7.33333C2.66663 8.19015 2.29523 8.71884 1.8334 9.24225C1.78001 9.30276 1.72132 9.36737 1.65999 9.43489L1.65995 9.43494C1.4742 9.63942 1.26416 9.87065 1.1033 10.0958C0.871924 10.4198 0.666626 10.8255 0.666626 11.3333C0.666626 11.8988 0.99593 12.3387 1.39207 12.6488C1.78833 12.9591 2.32558 13.2037 2.9446 13.3952C4.18945 13.7803 5.92869 14 7.99996 14C10.0712 14 11.8105 13.7803 13.0553 13.3952C13.6743 13.2037 14.2116 12.9591 14.6078 12.6488C15.004 12.3387 15.3333 11.8988 15.3333 11.3333C15.3333 10.8255 15.128 10.4198 14.8966 10.0958C14.7358 9.87064 14.5257 9.63942 14.34 9.43494C14.2786 9.3674 14.2199 9.30277 14.1665 9.24225C13.7047 8.71884 13.3333 8.19015 13.3333 7.33333V5.33333C13.3333 3.91885 12.7714 2.56229 11.7712 1.5621C10.771 0.561903 9.41445 0 7.99996 0ZM5.17153 2.50491C5.92168 1.75476 6.93909 1.33333 7.99996 1.33333C9.06082 1.33333 10.0782 1.75476 10.8284 2.50491C11.5785 3.25505 12 4.27247 12 5.33333V7.33333C12 8.67652 12.6286 9.51449 13.1667 10.1244C13.2533 10.2226 13.332 10.3092 13.404 10.3885L13.4041 10.3885C13.5691 10.5703 13.6996 10.7139 13.8116 10.8708C13.9553 11.0719 14 11.2079 14 11.3333L14 11.3334C14 11.3365 14.002 11.4298 13.7858 11.5991C13.5675 11.77 13.2006 11.9546 12.6613 12.1214C11.5894 12.453 9.99535 12.6667 7.99996 12.6667C6.00456 12.6667 4.41047 12.453 3.33865 12.1214C2.79934 11.9546 2.43242 11.77 2.2141 11.5991C1.99793 11.4298 1.99989 11.3365 1.99996 11.3334L1.99996 11.3333C1.99996 11.2079 2.04466 11.0719 2.18828 10.8708C2.30036 10.7139 2.43083 10.5702 2.59588 10.3885C2.66794 10.3092 2.74659 10.2226 2.83318 10.1244C3.37135 9.51449 3.99996 8.67652 3.99996 7.33333V5.33333C3.99996 4.27247 4.42139 3.25505 5.17153 2.50491ZM6.09664 14.6C6.69264 14.644 7.32597 14.6667 7.99997 14.6667C8.67397 14.6667 9.30731 14.644 9.90331 14.6C9.77624 15.0053 9.52311 15.3595 9.18076 15.611C8.83842 15.8624 8.42474 15.998 7.99997 15.998C7.5752 15.998 7.16153 15.8624 6.81918 15.611C6.47684 15.3595 6.2237 15.0053 6.09664 14.6Z" fill="#202327"/>
</g>
<defs>
<clipPath id="clip0_4_502">
<rect width="16" height="16" fill="white"/>
</clipPath>
</defs>
</svg>

<svg xmlns="http://www.w3.org/2000/svg" viewBox="0 0 16 16" class="sageicon"><path fill-rule="evenodd" d="M8 0a5.333 5.333 0 0 0-5.333 5.333v2c0 .857-.372 1.386-.834 1.91l-.173.192a7.698 7.698 0 0 0-.557.66c-.231.325-.436.73-.436 1.238 0 .566.329 1.006.725 1.316.396.31.934.555 1.553.746C4.189 13.78 5.929 14 8 14c2.071 0 3.81-.22 5.055-.605.62-.191 1.157-.436 1.553-.746.396-.31.725-.75.725-1.316 0-.508-.205-.913-.436-1.237-.161-.225-.371-.457-.557-.661l-.174-.193c-.461-.523-.833-1.052-.833-1.909v-2A5.333 5.333 0 0 0 8 0ZM5.172 2.505A4 4 0 0 1 12 5.333v2c0 1.344.629 2.181 1.167 2.791.086.099.165.185.237.264.165.182.296.326.408.483.143.2.188.337.188.462 0 .003.002.097-.214.266-.218.171-.585.356-1.125.522-1.072.332-2.666.546-4.661.546-1.995 0-3.59-.214-4.661-.546-.54-.166-.907-.351-1.125-.522-.216-.17-.214-.263-.214-.266 0-.125.045-.261.188-.462.112-.157.243-.3.408-.482.072-.08.15-.166.237-.265C3.371 9.514 4 8.677 4 7.334v-2a4 4 0 0 1 1.172-2.83ZM6.097 14.6c.596.044 1.229.067 1.903.067.674 0 1.307-.023 1.903-.067a1.995 1.995 0 0 1-3.806 0Z"/></svg>
